images/pig-scheme/golova.svg

<svg width="276" height="283" viewBox="0 0 276 283" fill="none" xmlns="http://www.w3.org/2000/svg">
<mask id="mask0" mask-type="alpha" maskUnits="userSpaceOnUse" x="0" y="0" width="276" height="283">
<path d="M269.76 241.4C269.76 247.22 266.29 264.02 255.17 270.36C244.07 276.68 240.6 282.5 231.46 282.5H128.97C120.34 282.5 112.22 278 102.93 274C93.6401 270 65.95 253.54 59.15 251.88C52.33 250.22 39.57 245.9 33.27 243.72C26.95 241.56 0 232.62 0 232.62C5.24 166.28 66.69 73.72 120.2 0C154.37 24.54 164.62 30.6 164.62 30.6C164.62 30.6 164.9 30.86 165.48 31.34C162.49 32.76 159.56 34.06 156.75 35.2C133.12 44.66 120.27 52.34 116.06 84.46C111.85 116.6 130.77 115.52 175.93 111.32C201.59 108.92 222.48 79.8 230.56 53.38C250.9 52.44 251.43 43.9 254.03 37.66C256.7 31.34 263 19.92 268.43 19.92C273.83 19.92 275.93 26.24 275.93 38.24C275.93 50.22 263.99 77.16 250.73 77.62C237.45 78.04 228.32 91.54 228.32 91.54C228.32 91.54 229.99 122.98 223.86 138.8C217.7 154.6 216.22 161.1 216.22 166.42C216.22 171.74 219.39 175.9 225.01 185.56C230.65 195.2 246.74 220.48 257.01 225.98C267.29 231.43 269.76 235.59 269.76 241.4Z" fill="#C21620"/>
</mask>
<g mask="url(#mask0)">
<path d="M269.86 241.95C269.86 247.77 266.39 264.57 255.27 270.91C244.17 277.23 240.7 283.05 231.56 283.05H129.07C120.44 283.05 112.32 278.55 103.03 274.55C93.7402 270.55 66.0501 254.09 59.2501 252.43C52.4301 250.77 39.6701 246.45 33.3701 244.27C27.0501 242.11 0.100098 233.17 0.100098 233.17C5.3401 166.83 66.7901 74.2698 120.3 0.549805C154.47 25.0898 164.72 31.1498 164.72 31.1498C164.72 31.1498 165 31.4098 165.58 31.8898C162.59 33.3098 159.66 34.6098 156.85 35.7498C133.22 45.2098 120.37 52.8898 116.16 85.0098C111.95 117.15 130.87 116.07 176.03 111.87C201.69 109.47 222.58 80.3498 230.66 53.9298C251 52.9898 251.53 44.4498 254.13 38.2098C256.8 31.8898 263.1 20.4698 268.53 20.4698C273.93 20.4698 276.03 26.7898 276.03 38.7898C276.03 50.7698 264.09 77.7098 250.83 78.1698C237.55 78.5898 228.42 92.0898 228.42 92.0898C228.42 92.0898 230.09 123.53 223.96 139.35C217.8 155.15 216.32 161.65 216.32 166.97C216.32 172.29 219.49 176.45 225.11 186.11C230.75 195.75 246.84 221.03 257.11 226.53C267.39 231.98 269.86 236.14 269.86 241.95Z" fill="#C21620"/>
<path d="M320 -146L-124 298" stroke="#9E1B1E" stroke-width="4"/>
<path d="M320 -121L-124 323" stroke="#9E1B1E" stroke-width="4"/>
<path d="M320 -96L-124 348" stroke="#9E1B1E" stroke-width="4"/>
<path d="M320 -71L-124 373" stroke="#9E1B1E" stroke-width="4"/>
<path d="M320 -46L-124 398" stroke="#9E1B1E" stroke-width="4"/>
<path d="M320 -21L-124 423" stroke="#9E1B1E" stroke-width="4"/>
<path d="M320 4L-124 448" stroke="#9E1B1E" stroke-width="4"/>
<path d="M320 29L-124 473" stroke="#9E1B1E" stroke-width="4"/>
<path d="M320 54L-124 498" stroke="#9E1B1E" stroke-width="4"/>
<path d="M320 79L-124 523" stroke="#9E1B1E" stroke-width="4"/>
<path d="M320 -171L-124 273" stroke="#9E1B1E" stroke-width="4"/>
<path d="M320 104L-124 548" stroke="#9E1B1E" stroke-width="4"/>
<path d="M320 129L-124 573" stroke="#9E1B1E" stroke-width="4"/>
<path d="M320 154L-124 598" stroke="#9E1B1E" stroke-width="4"/>
<path d="M320 179L-124 623" stroke="#9E1B1E" stroke-width="4"/>
</g>
</svg>

<svg width="276" height="283" fill="none" xmlns="http://www.w3.org/2000/svg"><mask id="mask0" maskUnits="userSpaceOnUse" x="0" y="0" width="276" height="283"><path d="M269.76 241.4c0 5.82-3.47 22.62-14.59 28.96-11.1 6.32-14.57 12.14-23.71 12.14H128.97c-8.63 0-16.75-4.5-26.04-8.5s-36.98-20.46-43.78-22.12c-6.82-1.66-19.58-5.98-25.88-8.16C26.95 241.56 0 232.62 0 232.62 5.24 166.28 66.69 73.72 120.2 0c34.17 24.54 44.42 30.6 44.42 30.6s.28.26.86.74a165.65 165.65 0 01-8.73 3.86c-23.63 9.46-36.48 17.14-40.69 49.26-4.21 32.14 14.71 31.06 59.87 26.86 25.66-2.4 46.55-31.52 54.63-57.94 20.34-.94 20.87-9.48 23.47-15.72 2.67-6.32 8.97-17.74 14.4-17.74 5.4 0 7.5 6.32 7.5 18.32 0 11.98-11.94 38.92-25.2 39.38-13.28.42-22.41 13.92-22.41 13.92s1.67 31.44-4.46 47.26c-6.16 15.8-7.64 22.3-7.64 27.62s3.17 9.48 8.79 19.14c5.64 9.64 21.73 34.92 32 40.42 10.28 5.45 12.75 9.61 12.75 15.42z" fill="#C21620"/></mask><g mask="url(#mask0)"><path d="M269.86 241.95c0 5.82-3.47 22.62-14.59 28.96-11.1 6.32-14.57 12.14-23.71 12.14H129.07c-8.63 0-16.75-4.5-26.04-8.5s-36.98-20.46-43.78-22.12c-6.82-1.66-19.58-5.98-25.88-8.16C27.05 242.11.1 233.17.1 233.17 5.34 166.83 66.79 74.27 120.3.55c34.17 24.54 44.42 30.6 44.42 30.6s.28.26.86.74a165.65 165.65 0 01-8.73 3.86c-23.63 9.46-36.48 17.14-40.69 49.26-4.21 32.14 14.71 31.06 59.87 26.86 25.66-2.4 46.55-31.52 54.63-57.94 20.34-.94 20.87-9.48 23.47-15.72 2.67-6.32 8.97-17.74 14.4-17.74 5.4 0 7.5 6.32 7.5 18.32 0 11.98-11.94 38.92-25.2 39.38-13.28.42-22.41 13.92-22.41 13.92s1.67 31.44-4.46 47.26c-6.16 15.8-7.64 22.3-7.64 27.62s3.17 9.48 8.79 19.14c5.64 9.64 21.73 34.92 32 40.42 10.28 5.45 12.75 9.61 12.75 15.42z" fill="#C21620"/><path d="M320-146l-444 444m444-419l-444 444M320-96l-444 444M320-71l-444 444M320-46l-444 444M320-21l-444 444M320 4l-444 444M320 29l-444 444M320 54l-444 444M320 79l-444 444m444-694l-444 444m444-169l-444 444m444-419l-444 444m444-419l-444 444m444-419l-444 444" stroke="#9E1B1E" stroke-width="4"/></g></svg>
